widgets/eBookmark/css/images/pencil_hover.svg

<?xml version="1.0" encoding="UTF-8"?>
<svg width="16px" height="16px" viewBox="0 0 16 16" version="1.1" xmlns="http://www.w3.org/2000/svg" xmlns:xlink="http://www.w3.org/1999/xlink">
    <!-- Generator: Sketch 46.2 (44496) - http://www.bohemiancoding.com/sketch -->
    <title>Edit</title>
    <desc>Created with Sketch.</desc>
    <defs></defs>
    <g id="Bookmark" stroke="none" stroke-width="1" fill="none" fill-rule="evenodd">
        <g id="Editable-List" transform="translate(-1363.000000, -405.000000)" fill="#24B5CC">
            <g id="Bookmark" transform="translate(1070.000000, 120.000000)">
                <g id="Added-at-runtime" transform="translate(10.000000, 275.000000)">
                    <g id="a">
                        <g id="Edit" transform="translate(283.000000, 10.000000)">
                            <path d="M0,12.6222222 L0,16 L3.37777778,16 L13.1555556,6.13333333 L9.77777778,2.75555556 L0,12.6222222 L0,12.6222222 Z M15.7333333,3.55555556 C16.0888889,3.2 16.0888889,2.66666667 15.7333333,2.31111111 L13.6888889,0.266666667 C13.3333333,-0.0888888889 12.8,-0.0888888889 12.4444444,0.266666667 L10.8444444,1.86666667 L14.2222222,5.24444444 L15.7333333,3.55555556 L15.7333333,3.55555556 Z" id="Shape"></path>
                        </g>
                    </g>
                </g>
            </g>
        </g>
    </g>
</svg>

<svg width="16" height="16" xmlns="http://www.w3.org/2000/svg"><path d="M0 12.622V16h3.378l9.778-9.867-3.378-3.377L0 12.622zm15.733-9.066a.86.86 0 0 0 0-1.245L13.69.267a.86.86 0 0 0-1.245 0l-1.6 1.6 3.378 3.377 1.511-1.688z" fill="#24B5CC" fill-rule="evenodd"/></svg>
